X:1
T:Pieta mercede
T:Pieta mercede
T:Francesca Caccini
T:Source : Primo libro delle Musische a 1 e 2 voci---Firenze---Z.Pignoni---1618. Editor : André Vierendeels (09/06/15).
T:Notes : Original clefs : C1, F4 Editorial accidentals above the staff Figures in BC are notated in original print m18 in S : "re" notated as quarter in original print
T:(Canzonetta)
C:Francesca Caccini
%%score 1 2
L:1/8
Q:1/4=70
M:4/4
K:F
V:1 treble nm="Soprano" snm="S"
V:2 bass nm="BC" snm="BC"
V:1
 z4 z2 B2 | ^F4 z2 A2 | A3 B c2 A2 | z A B>c d2 G2 | z2 cc c4- | c2 T=BA A4- | TA3 ^G- A4 | %7
w: Pie-|ta mer-|ce- * * de|a- i- * * ta,|a que- st'al-|* me do- len|_ ti, _|
 c3 F A4 | A4 z4 | d3 G G>A G>A | B/A/A TA>G- A2 z A | T=B3 A A/>B/c G2 | z2 E^F G2 A/F/G/A/ | %13
w: O, a- mi-|ci,|O pa- ren- * * *|* * * * ti, _ che'l|sol go- de- * * te|del- la mor- tal _ _ _|
"^-natural""^-natural" B>c B2 A4 | G8 | z2 B>B c>d _e2- | e2 GA =B4 | =B2 z B d4 | dAAA c3 c | %19
w: _ _ _ vi-|ta,|ec- co mor- * *|* te ch'ar- di-|ta, su- per-|ba, in- e- so- ra- bi-|
 c2 d2 GA>Bc | A4 A2 AB | c4 c4 | d2 de f3 B | c>d c/Tc/B/c/ .d4 | z2 B2 F4 | ^F4 z2 d2 | G4 ^G4 | %27
w: le spie- * * * *|ta gia vi mi-|nac- cia,|gia vi mi- nac- cia,|u- ma- * * * * ra,|pie- ta-|de, pie-|ta- de,|
 z2 c4 ^G>A | =B6 ^F2 | z2 ^F2 G3 A | A2 TA>G- G4 | z2 c4 TB>A | A4 z2 d2- | %33
w: ohi- me da|no- i|per ch'al- tri'un|gi- or- no, _|ab- bia pie-|ta, ab-|
 d2 Tc>B Bc/B/ A/G/F/E/ | D/E/F/D/ E/F/G/4A/4B/4c/4 dc/B/ A>B | ^F3 G A4 | G8 :| z2 G2 A>=B B2 | %38
w: bia pie- ta _ _ _ _ _ _ _|_ _ _ _ _ _ _ _ _ _ _ _ _ _ _|* di vo-|i.|Per ch'al- tri'un gi-|
 T=B3 A- A4 | z2 =B4 ^FG | E4 z2 c2- | c2 AB ^F4 |"^#" DE/F/ G/A/B/c/ d/A/B/G/ A/B/A/B/ | %43
w: or- no, _|ab- bia pie-|ta, ab-|* bia pie- ta|_ _ _ _ _ _ _ _ _ _ _ _ _ _ _|
 c/B/A/4G/4F/4E/4 F/D/E/F/ G/A/B/c/ A>B | c4- c^F G/E/F/G/ | G>A G2 TG3 ^F | G8 |] %47
w: |* * di vo- * * *|* * * * i.|_|
V:2
 G,,8 | D,4 D,4 |"^6""^#" E,4 F,2 F,2 |"^6" G,4 =B,,4 | C,8 |"^-natural""^-natural" D,4 D,4 | %6
"^6#""^-natural" =B,,4 .A,,4 |"^-natural" A,,2 B,,2 F,,4 |"^-natural" F,,4 D,,4 | D,2 G,,2 G,,4 | %10
"^6-natural""^#" G,,4 D,4 |"^6" D,4 E,2 =B,,2 | C,3 D, E,2 ^F,2 | G,4 D,4 | G,,8 | _E,,4 E,,4 | %16
 C,4 G,,4- |"^6" G,,4 =B,,4 |"^#" D,4 E,4 |"^#""^6-natural" F,2 F,2 G,2 G,2 | %20
"^#" A,2 G,2 F,2 E,D, |"^6" C,2 B,,2 A,,2 G,,2 | F,2 E,2 D,C, B,,2 | _E,4 D,4 |"^#" G,,4 D,4- | %25
 D,4 D,4 | E,8 |"^11""^10#" E,4- E,3 C, |"^11""^10#" =B,,4 B,,4 | =B,,4 B,,A,, G,,2 | %30
"^4""^#""^3" D,2 D,C, =B,,4 | C,4 E,4 | ^F,4 F,4 | G,4 G,,2 A,,2 | B,,4- B,,2 C,2 |"^b" D,4 D,,4 | %36
 G,,8 :|"^-natural" C,4 C,=B,, A,,2 |"^4""^#""^3" E,2 E,D, ^C,4 |"^#" D,4 =B,,4 |"^6" ^G,,4 A,,4 | %41
 ^F,3 G, D,4 | D,2 C,2 B,,4 | F,,2 D,2 _E,2 C,2- |"^5        6" C,4 D,2 D,2 |"^5""^14" D,4 D,4 | %46
 G,,8 |] %47

